src/pages/elements/images/formula-right-mobile.svg

<svg xmlns="http://www.w3.org/2000/svg" viewBox="0 0 288 288"><g fill="none" fill-rule="evenodd"><path fill="#FFF" d="M0 0h288v288H0z"/><path d="M30.328 115V90.024h-4.704v-3.92h4.704V80.28c0-3.976 2.072-6.72 6.328-6.72h4.368v3.92h-6.216v8.624h6.216v3.92h-6.216V115h-4.48zm19.096-21.168H45.28l3.136-17.92h4.144l-3.136 17.92zm24.136 3.696c0-10.808 4.424-20.216 10.136-25.088h4.256c-6.216 5.6-10.192 14.896-10.192 22.736v4.816c0 7.84 4.144 17.304 10.192 22.68h-4.256c-5.544-4.704-10.136-14.224-10.136-25.144zM88.848 115l10.696-14.56-10.248-14.336h5.264l7.336 10.752h.168l7.616-10.752h4.984l-10.192 14L114.888 115h-5.264l-7.504-11.312h-.168L93.832 115h-4.984zm41.328-17.472c0 10.92-4.592 20.44-10.136 25.144h-4.256c6.048-5.376 10.192-14.84 10.192-22.68v-4.816c0-7.84-3.976-17.136-10.192-22.736h4.256c5.712 4.872 10.136 14.28 10.136 25.088zm34.496-3.36h-26.096V90.36h26.096v3.808zm0 11.2h-26.096v-3.808h26.096v3.808zM169.6 115l10.696-14.56-10.248-14.336h5.264l7.336 10.752h.168l7.616-10.752h4.984l-10.192 14L195.64 115h-5.264l-7.504-11.312h-.168L174.584 115H169.6zm44.632-21.224v2.8H199v-3.192l7.28-5.88c2.184-1.792 3.472-3.472 3.472-5.488v-.336c0-1.904-1.288-3.192-3.64-3.192-2.576 0-3.752 1.456-4.368 3.248l-3.024-1.12c.896-2.632 3.136-5.04 7.616-5.04 4.592 0 7.168 2.52 7.168 6.104 0 3.248-2.184 5.488-5.32 7.896l-5.432 4.2h11.48zM34.36 152.488h4.256c5.264 0 7.952-2.744 7.952-6.496v-.392c0-4.088-2.856-6.16-7-6.16-4.032 0-6.44 1.904-8.064 4.872l-3.472-2.688c1.96-3.136 5.376-6.384 11.648-6.384 6.608 0 11.872 3.528 11.872 9.856 0 5.04-3.36 8.064-7.504 9.128v.224c4.2.84 8.232 3.976 8.232 9.856 0 6.72-5.32 11.368-13.272 11.368-6.776 0-10.248-3.304-12.656-6.664l3.528-2.688c2.016 3.08 4.312 5.152 9.072 5.152 5.488 0 8.4-2.632 8.4-7.224v-.448c0-4.592-2.912-7.224-8.4-7.224H34.36v-4.088zm36.344 2.016c-5.32 0-9.408-4.144-9.408-9.632 0-5.488 4.088-9.632 9.408-9.632 5.32 0 9.408 4.144 9.408 9.632 0 5.488-4.088 9.632-9.408 9.632zm0-3.584c3.36 0 5.488-2.688 5.488-6.048s-2.128-6.048-5.488-6.048c-3.36 0-5.488 2.688-5.488 6.048s2.128 6.048 5.488 6.048zm54.208-15.008v4.144h-17.136l-1.12 14.896h.392c1.848-2.632 3.92-4.312 8.008-4.312 6.72 0 11.648 4.536 11.648 12.096 0 7.616-4.928 12.936-13.16 12.936-6.496 0-9.856-3.304-12.208-6.664l3.528-2.688c2.016 3.08 3.976 5.152 8.68 5.152 5.32 0 8.176-2.968 8.176-8.12v-.56c0-5.152-2.856-8.12-8.176-8.12-3.584 0-5.376 1.512-7 3.304l-3.976-.56 1.4-21.504h20.944zm12.992 17.92h-4.144l3.136-17.92h4.144l-3.136 17.92zm29.848-1.344h4.256c5.264 0 7.952-2.744 7.952-6.496v-.392c0-4.088-2.856-6.16-7-6.16-4.032 0-6.44 1.904-8.064 4.872l-3.472-2.688c1.96-3.136 5.376-6.384 11.648-6.384 6.608 0 11.872 3.528 11.872 9.856 0 5.04-3.36 8.064-7.504 9.128v.224c4.2.84 8.232 3.976 8.232 9.856 0 6.72-5.32 11.368-13.272 11.368-6.776 0-10.248-3.304-12.656-6.664l3.528-2.688c2.016 3.08 4.312 5.152 9.072 5.152 5.488 0 8.4-2.632 8.4-7.224v-.448c0-4.592-2.912-7.224-8.4-7.224h-4.592v-4.088zm40.04 23.184c-9.352 0-13.44-7.448-13.44-20.216s4.088-20.216 13.44-20.216 13.44 7.448 13.44 20.216-4.088 20.216-13.44 20.216zm0-4.088c6.104 0 8.512-5.376 8.512-12.936v-6.384c0-7.56-2.408-12.936-8.512-12.936-6.104 0-8.512 5.376-8.512 12.936v6.384c0 7.56 2.408 12.936 8.512 12.936zm33.992-17.752h-4.144l3.136-17.92h4.144l-3.136 17.92zm-9.912 0h-4.144l3.136-17.92h4.144l-3.136 17.92zM34.36 212.488h4.256c5.264 0 7.952-2.744 7.952-6.496v-.392c0-4.088-2.856-6.16-7-6.16-4.032 0-6.44 1.904-8.064 4.872l-3.472-2.688c1.96-3.136 5.376-6.384 11.648-6.384 6.608 0 11.872 3.528 11.872 9.856 0 5.04-3.36 8.064-7.504 9.128v.224c4.2.84 8.232 3.976 8.232 9.856 0 6.72-5.32 11.368-13.272 11.368-6.776 0-10.248-3.304-12.656-6.664l3.528-2.688c2.016 3.08 4.312 5.152 9.072 5.152 5.488 0 8.4-2.632 8.4-7.224v-.448c0-4.592-2.912-7.224-8.4-7.224H34.36v-4.088zm30.52 1.344h-4.144l3.136-17.92h4.144l-3.136 17.92zm47.376-17.92v4.144H95.12L94 214.952h.392c1.848-2.632 3.92-4.312 8.008-4.312 6.72 0 11.648 4.536 11.648 12.096 0 7.616-4.928 12.936-13.16 12.936-6.496 0-9.856-3.304-12.208-6.664l3.528-2.688c2.016 3.08 3.976 5.152 8.68 5.152 5.32 0 8.176-2.968 8.176-8.12v-.56c0-5.152-2.856-8.12-8.176-8.12-3.584 0-5.376 1.512-7 3.304l-3.976-.56 1.4-21.504h20.944zm22.904 17.92h-4.144l3.136-17.92h4.144l-3.136 17.92zm-9.912 0h-4.144l3.136-17.92h4.144l-3.136 17.92z" fill="#3D3D3D"/></g></svg>

<?xml version="1.0" encoding="UTF-8"?>
<svg width="288px" height="288px" viewBox="0 0 288 288" version="1.1" xmlns="http://www.w3.org/2000/svg" xmlns:xlink="http://www.w3.org/1999/xlink">
    <!-- Generator: Sketch 51.2 (57519) - http://www.bohemiancoding.com/sketch -->
    <title>Group 21</title>
    <desc>Created with Sketch.</desc>
    <defs></defs>
    <g id="Page-1" stroke="none" stroke-width="1" fill="none" fill-rule="evenodd">
        <g id="Type-Basics-Copy" transform="translate(-352.000000, -4425.000000)">
            <g id="Group-21" transform="translate(352.000000, 4425.000000)">
                <rect id="Rectangle-16-Copy-149" fill="#FFFFFF" x="0" y="0" width="288" height="288"></rect>
                <path d="M30.328,115 L30.328,90.024 L25.624,90.024 L25.624,86.104 L30.328,86.104 L30.328,80.28 C30.328,76.304 32.4,73.56 36.656,73.56 L41.024,73.56 L41.024,77.48 L34.808,77.48 L34.808,86.104 L41.024,86.104 L41.024,90.024 L34.808,90.024 L34.808,115 L30.328,115 Z M49.424,93.832 L45.28,93.832 L48.416,75.912 L52.56,75.912 L49.424,93.832 Z M73.56,97.528 C73.56,86.72 77.984,77.312 83.696,72.44 L87.952,72.44 C81.736,78.04 77.76,87.336 77.76,95.176 L77.76,99.992 C77.76,107.832 81.904,117.296 87.952,122.672 L83.696,122.672 C78.152,117.968 73.56,108.448 73.56,97.528 Z M88.848,115 L99.544,100.44 L89.296,86.104 L94.56,86.104 L101.896,96.856 L102.064,96.856 L109.68,86.104 L114.664,86.104 L104.472,100.104 L114.888,115 L109.624,115 L102.12,103.688 L101.952,103.688 L93.832,115 L88.848,115 Z M130.176,97.528 C130.176,108.448 125.584,117.968 120.04,122.672 L115.784,122.672 C121.832,117.296 125.976,107.832 125.976,99.992 L125.976,95.176 C125.976,87.336 122,78.04 115.784,72.44 L120.04,72.44 C125.752,77.312 130.176,86.72 130.176,97.528 Z M164.672,94.168 L138.576,94.168 L138.576,90.36 L164.672,90.36 L164.672,94.168 Z M164.672,105.368 L138.576,105.368 L138.576,101.56 L164.672,101.56 L164.672,105.368 Z M169.6,115 L180.296,100.44 L170.048,86.104 L175.312,86.104 L182.648,96.856 L182.816,96.856 L190.432,86.104 L195.416,86.104 L185.224,100.104 L195.64,115 L190.376,115 L182.872,103.688 L182.704,103.688 L174.584,115 L169.6,115 Z M214.232,93.776 L214.232,96.576 L199,96.576 L199,93.384 L206.28,87.504 C208.464,85.712 209.752,84.032 209.752,82.016 L209.752,81.68 C209.752,79.776 208.464,78.488 206.112,78.488 C203.536,78.488 202.36,79.944 201.744,81.736 L198.72,80.616 C199.616,77.984 201.856,75.576 206.336,75.576 C210.928,75.576 213.504,78.096 213.504,81.68 C213.504,84.928 211.32,87.168 208.184,89.576 L202.752,93.776 L214.232,93.776 Z M34.36,152.488 L38.616,152.488 C43.88,152.488 46.568,149.744 46.568,145.992 L46.568,145.6 C46.568,141.512 43.712,139.44 39.568,139.44 C35.536,139.44 33.128,141.344 31.504,144.312 L28.032,141.624 C29.992,138.488 33.408,135.24 39.68,135.24 C46.288,135.24 51.552,138.768 51.552,145.096 C51.552,150.136 48.192,153.16 44.048,154.224 L44.048,154.448 C48.248,155.288 52.28,158.424 52.28,164.304 C52.28,171.024 46.96,175.672 39.008,175.672 C32.232,175.672 28.76,172.368 26.352,169.008 L29.88,166.32 C31.896,169.4 34.192,171.472 38.952,171.472 C44.44,171.472 47.352,168.84 47.352,164.248 L47.352,163.8 C47.352,159.208 44.44,156.576 38.952,156.576 L34.36,156.576 L34.36,152.488 Z M70.704,154.504 C65.384,154.504 61.296,150.36 61.296,144.872 C61.296,139.384 65.384,135.24 70.704,135.24 C76.024,135.24 80.112,139.384 80.112,144.872 C80.112,150.36 76.024,154.504 70.704,154.504 Z M70.704,150.92 C74.064,150.92 76.192,148.232 76.192,144.872 C76.192,141.512 74.064,138.824 70.704,138.824 C67.344,138.824 65.216,141.512 65.216,144.872 C65.216,148.232 67.344,150.92 70.704,150.92 Z M124.912,135.912 L124.912,140.056 L107.776,140.056 L106.656,154.952 L107.048,154.952 C108.896,152.32 110.968,150.64 115.056,150.64 C121.776,150.64 126.704,155.176 126.704,162.736 C126.704,170.352 121.776,175.672 113.544,175.672 C107.048,175.672 103.688,172.368 101.336,169.008 L104.864,166.32 C106.88,169.4 108.84,171.472 113.544,171.472 C118.864,171.472 121.72,168.504 121.72,163.352 L121.72,162.792 C121.72,157.64 118.864,154.672 113.544,154.672 C109.96,154.672 108.168,156.184 106.544,157.976 L102.568,157.416 L103.968,135.912 L124.912,135.912 Z M137.904,153.832 L133.76,153.832 L136.896,135.912 L141.04,135.912 L137.904,153.832 Z M167.752,152.488 L172.008,152.488 C177.272,152.488 179.96,149.744 179.96,145.992 L179.96,145.6 C179.96,141.512 177.104,139.44 172.96,139.44 C168.928,139.44 166.52,141.344 164.896,144.312 L161.424,141.624 C163.384,138.488 166.8,135.24 173.072,135.24 C179.68,135.24 184.944,138.768 184.944,145.096 C184.944,150.136 181.584,153.16 177.44,154.224 L177.44,154.448 C181.64,155.288 185.672,158.424 185.672,164.304 C185.672,171.024 180.352,175.672 172.4,175.672 C165.624,175.672 162.152,172.368 159.744,169.008 L163.272,166.32 C165.288,169.4 167.584,171.472 172.344,171.472 C177.832,171.472 180.744,168.84 180.744,164.248 L180.744,163.8 C180.744,159.208 177.832,156.576 172.344,156.576 L167.752,156.576 L167.752,152.488 Z M207.792,175.672 C198.44,175.672 194.352,168.224 194.352,155.456 C194.352,142.688 198.44,135.24 207.792,135.24 C217.144,135.24 221.232,142.688 221.232,155.456 C221.232,168.224 217.144,175.672 207.792,175.672 Z M207.792,171.584 C213.896,171.584 216.304,166.208 216.304,158.648 L216.304,152.264 C216.304,144.704 213.896,139.328 207.792,139.328 C201.688,139.328 199.28,144.704 199.28,152.264 L199.28,158.648 C199.28,166.208 201.688,171.584 207.792,171.584 Z M241.784,153.832 L237.64,153.832 L240.776,135.912 L244.92,135.912 L241.784,153.832 Z M231.872,153.832 L227.728,153.832 L230.864,135.912 L235.008,135.912 L231.872,153.832 Z M34.36,212.488 L38.616,212.488 C43.88,212.488 46.568,209.744 46.568,205.992 L46.568,205.6 C46.568,201.512 43.712,199.44 39.568,199.44 C35.536,199.44 33.128,201.344 31.504,204.312 L28.032,201.624 C29.992,198.488 33.408,195.24 39.68,195.24 C46.288,195.24 51.552,198.768 51.552,205.096 C51.552,210.136 48.192,213.16 44.048,214.224 L44.048,214.448 C48.248,215.288 52.28,218.424 52.28,224.304 C52.28,231.024 46.96,235.672 39.008,235.672 C32.232,235.672 28.76,232.368 26.352,229.008 L29.88,226.32 C31.896,229.4 34.192,231.472 38.952,231.472 C44.44,231.472 47.352,228.84 47.352,224.248 L47.352,223.8 C47.352,219.208 44.44,216.576 38.952,216.576 L34.36,216.576 L34.36,212.488 Z M64.88,213.832 L60.736,213.832 L63.872,195.912 L68.016,195.912 L64.88,213.832 Z M112.256,195.912 L112.256,200.056 L95.12,200.056 L94,214.952 L94.392,214.952 C96.24,212.32 98.312,210.64 102.4,210.64 C109.12,210.64 114.048,215.176 114.048,222.736 C114.048,230.352 109.12,235.672 100.888,235.672 C94.392,235.672 91.032,232.368 88.68,229.008 L92.208,226.32 C94.224,229.4 96.184,231.472 100.888,231.472 C106.208,231.472 109.064,228.504 109.064,223.352 L109.064,222.792 C109.064,217.64 106.208,214.672 100.888,214.672 C97.304,214.672 95.512,216.184 93.888,217.976 L89.912,217.416 L91.312,195.912 L112.256,195.912 Z M135.16,213.832 L131.016,213.832 L134.152,195.912 L138.296,195.912 L135.16,213.832 Z M125.248,213.832 L121.104,213.832 L124.24,195.912 L128.384,195.912 L125.248,213.832 Z" id="f′-(x)=x²-3°-5′-30″" fill="#3D3D3D"></path>
            </g>
        </g>
    </g>
</svg>
